X:1
T:Spanish Fandango
T:As published by J. Church & Co. 1882
T:H. Worrall
T:Arr. by J.T.R.
T:by Mutopia - Scritto con MuseScore, un software libero e gratuito: http://musescore.org/it
T:by Mutopia - Scritto con MuseScore, un software libero e gratuito: http://musescore.org/it
Z:by Mutopia - Scritto con MuseScore, un software libero e gratuito: http://musescore.org/it
%%score ( 1 2 )
L:1/8
Q:1/4=109
M:6/8
K:G
V:1 treble-8 nm="Chitarra classica" snm="Chit. cl."
V:2 treble-8 
V:1
"^Allegro" b3 a3 | g3 d3 | d3 d3 | d3 d3 | b3 a3 | g3 d3 | d3 d3 | G,GB [GBg]3 || d3 d3 | d3 d3 | %10
 d3 d3 | d3 d3 | g3 a3 | b3 d3 | d3 d3 | G,/G/B/d/e/d/ [G,GBg]3 || g3 g3 | d3 d3 | a3 a3 | d3 d3 | %20
 f3 f3 | g3 g3 | a3 a3 | G,/G/B/d/e/d/ [G,GBg]3 || z [GBb][GBb] z [GBa][GBa] | %25
 z [GBg][GBg] z [GBd][GBd] | z [Acd][Acd] z [Acd][Acd] | z [GBd][GBd] z [GBd][GBd] | %28
 z [GBb][GBb] z [GBa][GBa] | z [GBg][GBg] z [GBd][GBd] | z [Acd][Acd] z [Acd][Acd] | %31
 z [GBd][GBd] [GBg]3 || z [GBd][GBd] z [GBd][GBd] | z [GBd][GBd] z [GBd][GBd] | %34
 z [Acd][Acd] z [Acd][Acd] | z [GBd][GBd] z [GBd][GBd] | z [GBd][GBd] z [GBd][GBd] | %37
 z [GBd][GBd] z [GBd][GBd] | z [Acd][Acd] z [Acd][Acd] | z [GBd][GBd] [GBg]3 || %40
 z [ceg][ceg] z [ceg][ceg] | z [GBd][GBd] z [GBd][GBd] | z [dfa][dfa] z [dfa][dfa] | %43
 z [GBd][GBd] z [GBd][GBd] | z [B^df][Bdf] z [Bdf][Bdf] | z [ceg][ceg] z [ceg][ceg] | %46
 z [dfa][dfa] z [dfa][dfa] | z [GBd][GBd] [GBg]3 ||[M:2/4] z/ G/B/b/ z/ G/B/a/ | %49
 z/ G/B/g/ z/ G/B/d/ | z [Acd] z [Acd] | z/ G/B/d/ z [GBd] | z/ G/B/b/ z/ G/B/a/ | %53
 z/ G/B/g/ z [GBd] | z/ A/c/d/ z/ A/c/d/ | z [GBg] [GBg]2 || z/ G/B/e/ z [GBd] | %57
 z/ G/B/e/ z [GBd] | z/ A/c/d/ z/ A/c/d/ | z/ G/B/g/ z [GBd] | z/ G/B/g/ z [GBa] | %61
 z/ G/B/b/ z [GBd] | z/ A/c/d/ z/ A/c/d/ | z [GBg] [GBg]2 || z/ c/e/g/ z/ c/e/g/ | %65
 z [GBd] z [GBd] | z/ d/f/a/ z/ d/f/a/ | z [GBd] z [GBd] | z/ B/^d/f/ z/ B/d/f/ | %69
 z/ c/e/g/ z/ c/e/g/ | z/ d/f/a/ z/ d/f/a/ | z [GBg] [GBg]2 |] %72
V:2
 G,GB DGB | G,GB G,GB | DAc DAc | G,GB G,GB | G,GB DGB | G,GB G,GB | DAc DAc | G,3 G,3 || DAc DAc | %9
 G,GB G,GB | DAc DAc | G,GB G,GB | G,GB DGB | G,GB G,GB | DAc DAc | x6 || Cce Cce | G,GB DGB | %18
 Ddf Adf | G,GB DGB | B,B^d FBd | Cce Gce | Ddf Adf | x6 || G,3 D3 | G,3 G,3 | D3 D3 | G,3 G,3 | %28
 G,3 D3 | G,3 G,3 | D3 D3 | G,3 G,3 || G3 A3 | B3 D3 | D3 D3 | G,3 G,3 | G3 A3 | B3 D3 | D3 D3 | %39
 G,3 G,3 || C3 G3 | G,3 G,3 | D3 A3 | G,3 D3 | B,3 F3 | C3 G3 | D3 A3 | G,3 G,3 ||[M:2/4] G,2 D2 | %49
 G,2 G,2 | D2 D2 | G,2 G,2 | G,2 D2 | G,2 G,2 | D2 D2 | G,2 z2 || G,2 D2 | G,2 G,2 | D2 D2 | %59
 G,2 G,2 | G,2 D2 | G,2 G,2 | D2 D2 | G,2 z2 || C2 G2 | G,2 G2 | C2 G2 | G,2 G2 | B,2 F2 | C2 G2 | %70
 D2 A2 | G,2 G,2 |] %72

